X:13510
T:Por aquel camino verde
M:2/4
L:1/8
Q:1/4=92
S:Trad
R:Danza
O:Spain
A: Pontedo, Bierzo, KINGDOM OF LEON
K:D
"CORO I"
AA|FG AA| GG GF|EF GG|F-E F2-|F2
"CORO II"
AA|
FG AA| GG GF|EF GG|F-E F2-|F2 
"I (A)"
AA|
DD CD|EE "II"BB/2B/2|AA GG|F2 "I"FF|
DD CD|EE "II" BB|AA GG|F2 "I" FG|AB =cB|
AB AF|EA AG|FE F2-|F2 "II" FG|
AB =cB|AB AF|EA AG| FE F2-|"(B)"F2 "II" FF|EE DE|
EE "II" BB/2B/2|AA GG|F2 "I" FF|DD CD|EEz2||
W: Repite de (A) a (B) con cada fórmula.


